dist/img/user_2.svg

<svg width="17" height="19" viewBox="0 0 17 19" fill="none" xmlns="http://www.w3.org/2000/svg">
<path d="M8.18428 0.980469C5.5569 0.980469 3.57568 2.81728 3.57568 5.2529C3.57568 7.75986 5.64309 9.79915 8.18428 9.79915C10.7255 9.79915 12.7929 7.75986 12.7929 5.25311C12.7929 2.81728 10.8117 0.980469 8.18428 0.980469Z" fill="#848484"/>
<path d="M8.50002 10.8945C3.01872 10.8945 0 13.4876 0 18.1961C0 18.5639 0.298049 18.8619 0.665792 18.8619H16.3342C16.702 18.8619 17 18.5639 17 18.1961C17 13.4878 13.9813 10.8945 8.50002 10.8945Z" fill="#848484"/>
</svg>

<svg width="17" height="19" fill="none" xmlns="http://www.w3.org/2000/svg"><path d="M8.184.98c-2.627 0-4.608 1.837-4.608 4.273 0 2.507 2.067 4.546 4.608 4.546 2.542 0 4.609-2.04 4.609-4.546 0-2.436-1.981-4.273-4.609-4.273zm.316 9.915c-5.481 0-8.5 2.593-8.5 7.301 0 .368.298.666.666.666h15.668a.666.666 0 00.666-.666c0-4.708-3.019-7.302-8.5-7.302z" fill="#848484"/></svg>
